;FLAVOR:Marlin
;TIME:1333
;Filament used: 1.10793m
;Layer height: 0.2
;MINX:69.803
;MINY:38.852
;MINZ:0.2
;MAXX:132.762
;MAXY:138.168
;MAXZ:3
;Generated with Cura_SteamEngine 4.3.0
M140 S70
M105
M190 S70
M104 S200
M105
M109 S200
M82 ;absolute extrusion mode
G21 ;metric values
G90 ;absolute positioning
M82 ;set extruder to absolute mode
M107 ;start with the fan off
G28 X0 Y0 ;move X/Y to min endstops
G28 Z0 ;move Z to min endstops
M501 ; enable mesh level values
M420 S1 ; enable mesh level values
G1 Z15.0 F100 ;move the platform down 15mm
G92 E0 ;zero the extruded length
G1 F200 E3 ;extrude 3mm of feed stock
G92 E0 ;zero the extruded length again
G1 F100
M117 Printing...
G5
G92 E0
G92 E0
G1 F2400 E-6
;LAYER_COUNT:15
;LAYER:0
M106 S153
M204 S3000
M205 X10 Y10
G1 F600 Z0.275
G0 F3000 X71.634 Y62.34 Z0.275
M204 S1800
M205 X8 Y8
;TYPE:SKIRT
G1 F600 Z0.2
G1 F2400 E0
G1 X72.134 Y61.829 E0.03329
G1 X72.688 Y61.376 E0.06661
G1 X73.289 Y60.989 E0.0999
G1 X74.12 Y60.593 E0.14276
G1 X74.876 Y60.297 E0.18057
G1 X74.956 Y60.265 E0.18458
G1 X76.01 Y59.869 E0.23701
G1 X78.421 Y58.884 E0.35828
G1 X80.862 Y57.806 E0.48253
G1 X83.25 Y56.67 E0.60567
G1 X85.585 Y55.476 E0.72779
G1 X87.926 Y54.195 E0.85205
G1 X90.228 Y52.849 E0.97622
G1 X92.44 Y51.471 E1.09757
G1 X94.674 Y49.989 E1.2224
G1 X96.834 Y48.467 E1.34544
G1 X98.941 Y46.891 E1.46796
G1 X101.037 Y45.23 E1.59249
G1 X102.767 Y43.783 E1.69751
G1 X103.179 Y43.431 E1.72274
G1 X103.748 Y42.997 E1.75606
G1 X104.362 Y42.63 E1.78937
G1 X105.013 Y42.333 E1.82269
G1 X105.567 Y42.146 E1.84992
G1 X106.453 Y41.891 E1.89285
G1 X106.567 Y41.859 E1.89836
G1 X116.317 Y39.247 E2.36837
G1 X116.387 Y39.229 E2.37174
G1 X117.087 Y39.05 E2.40538
G1 X117.789 Y38.911 E2.4387
G1 X118.502 Y38.852 E2.47202
G1 X119.217 Y38.873 E2.50533
G1 X119.925 Y38.974 E2.53863
G1 X120.618 Y39.153 E2.57196
G1 X121.286 Y39.408 E2.60525
G1 X121.922 Y39.736 E2.63857
G1 X122.517 Y40.133 E2.67188
G1 X123.064 Y40.594 E2.70519
G1 X123.556 Y41.113 E2.73849
G1 X123.987 Y41.683 E2.77176
G1 X124.352 Y42.298 E2.80506
G1 X124.646 Y42.951 E2.83841
G1 X124.827 Y43.494 E2.86506
G1 X125.579 Y46.13 E2.9927
G1 X126.346 Y48.524 E3.10976
G1 X126.368 Y48.594 E3.11317
G1 X126.548 Y49.179 E3.14167
G1 X126.72 Y49.873 E3.17497
G1 X126.813 Y50.582 E3.20826
G1 X126.817 Y51.491 E3.25059
G1 X126.77 Y52.193 E3.28335
G1 X126.622 Y54.898 E3.4095
G1 X126.554 Y57.534 E3.53228
G1 X126.561 Y60.182 E3.65558
G1 X126.641 Y62.82 E3.77848
G1 X126.797 Y65.464 E3.90181
G1 X127.03 Y68.126 E4.02623
G1 X127.331 Y70.723 E4.14797
G1 X127.71 Y73.343 E4.27124
G1 X128.168 Y75.98 E4.39587
G1 X128.683 Y78.517 E4.51641
G1 X129.296 Y81.151 E4.64234
G1 X129.967 Y83.708 E4.76543
G1 X130.702 Y86.214 E4.88704
G1 X131.868 Y89.745 E5.06019
G1 X132.267 Y90.879 E5.11617
G1 X132.466 Y91.566 E5.14947
G1 X132.587 Y92.271 E5.18278
G1 X132.627 Y93.177 E5.22501
G1 X132.583 Y94.789 E5.3001
G1 X132.544 Y97.442 E5.42364
G1 X132.581 Y100.08 E5.54649
G1 X132.736 Y103.494 E5.70563
G1 X132.741 Y103.949 E5.72681
G1 X132.649 Y107.53 E5.89362
G1 X132.656 Y110.157 E6.01594
G1 X132.732 Y112.287 E6.11519
G1 X132.734 Y112.345 E6.11789
G1 X132.762 Y113.394 E6.16675
G1 X132.741 Y114.109 E6.20006
G1 X132.64 Y114.817 E6.23336
G1 X132.557 Y115.18 E6.2507
G1 X132.2 Y116.549 E6.31658
G1 X131.567 Y119.112 E6.43951
G1 X130.997 Y121.725 E6.56404
G1 X130.506 Y124.358 E6.68876
G1 X130.267 Y125.803 E6.75696
G1 X130.111 Y126.502 E6.79031
G1 X129.878 Y127.178 E6.8236
G1 X129.571 Y127.824 E6.85691
G1 X129.194 Y128.431 E6.89018
G1 X128.945 Y128.763 E6.9095
G1 X128.799 Y128.945 E6.92037
G1 X128.382 Y129.416 E6.94966
G1 X128.201 Y129.601 E6.96171
G1 X128.151 Y129.65 E6.96497
G1 X124.579 Y133.222 E7.20019
G1 X124.089 Y133.699 E7.23203
G1 X123.55 Y134.168 E7.2653
G1 X122.961 Y134.575 E7.29864
G1 X122.331 Y134.913 E7.33193
G1 X121.667 Y135.179 E7.36524
G1 X120.977 Y135.369 E7.39856
G1 X120.589 Y135.44 E7.41693
G1 X119.357 Y135.628 E7.47496
G1 X116.661 Y136.072 E7.60219
G1 X114.096 Y136.569 E7.72385
G1 X111.504 Y137.148 E7.84752
G1 X109.496 Y137.649 E7.94388
G1 X108.291 Y137.964 E8.00188
G1 X107.59 Y138.105 E8.03518
G1 X106.877 Y138.168 E8.06851
G1 X106.162 Y138.15 E8.10181
G1 X105.454 Y138.053 E8.13508
G1 X104.76 Y137.878 E8.16841
G1 X104.298 Y137.713 E8.19126
G1 X104.068 Y137.621 E8.20279
G1 X103.736 Y137.477 E8.21964
G1 X101.699 Y136.525 E8.32434
G1 X99.245 Y135.461 E8.44889
G1 X96.793 Y134.479 E8.57188
G1 X94.328 Y133.572 E8.69418
G1 X91.796 Y132.721 E8.81856
G1 X89.246 Y131.944 E8.94269
G1 X86.735 Y131.255 E9.06394
G1 X84.12 Y130.616 E9.18928
G1 X81.552 Y130.067 E9.31156
G1 X77.878 Y129.407 E9.48538
G1 X77.182 Y129.242 E9.51869
G1 X76.509 Y129 E9.55199
G1 X75.867 Y128.684 E9.58531
G1 X75.265 Y128.298 E9.61861
G1 X74.709 Y127.848 E9.65191
G1 X74.207 Y127.339 E9.6852
G1 X73.765 Y126.776 E9.71853
G1 X73.388 Y126.168 E9.75184
G1 X73.082 Y125.522 E9.78513
G1 X72.849 Y124.846 E9.81842
G1 X72.694 Y124.147 E9.85176
G1 X72.61 Y123.239 E9.89422
G1 X72.589 Y122.215 E9.94191
G1 X72.588 Y122.084 E9.94801
G1 X72.588 Y114.907 E10.28221
G1 X72.589 Y114.815 E10.28649
G1 X72.599 Y114.118 E10.31895
G1 X72.648 Y113.412 E10.3519
G1 X72.743 Y112.656 E10.38738
G1 X73.04 Y110.029 E10.51048
G1 X73.266 Y107.376 E10.63447
G1 X73.414 Y104.745 E10.75717
G1 X73.489 Y102.067 E10.88192
G1 X73.489 Y99.423 E11.00503
G1 X73.414 Y96.814 E11.12657
G1 X73.263 Y94.149 E11.25086
G1 X73.037 Y91.506 E11.37438
G1 X72.738 Y88.879 E11.49749
G1 X72.364 Y86.257 E11.62082
G1 X71.922 Y83.674 E11.74285
G1 X71.215 Y80.229 E11.9066
G1 X71.028 Y79.395 E11.9464
G1 X70.957 Y79.029 E11.96376
G1 X70.923 Y78.822 E11.97353
G1 X70.91 Y78.741 E11.97735
G1 X70.56 Y76.426 E12.08637
G1 X70.137 Y74.167 E12.19339
G1 X70.13 Y74.124 E12.19542
G1 X69.898 Y72.837 E12.25631
G1 X69.81 Y72.127 E12.28962
G1 X69.803 Y71.408 E12.3231
G1 X69.817 Y71.104 E12.33727
G1 X69.822 Y71 E12.34212
G1 X69.96 Y68.789 E12.44528
G1 X69.99 Y67.756 E12.4934
G1 X69.994 Y67.641 E12.49876
G1 X70.06 Y66.249 E12.56365
G1 X70.134 Y65.537 E12.59698
G1 X70.287 Y64.839 E12.63025
G1 X70.516 Y64.161 E12.66357
G1 X70.82 Y63.514 E12.69686
G1 X71.194 Y62.904 E12.73018
G1 X71.634 Y62.34 E12.76349
M204 S3000
M205 X10 Y10
G0 F3000 X72.179 Y62.572
M204 S1800
M205 X8 Y8
G1 F2400 X72.673 Y62.1 E12.7953
G1 X73.219 Y61.689 E12.82712
G1 X73.809 Y61.345 E12.85893
G1 X74.324 Y61.114 E12.88521
G1 X75.08 Y60.818 E12.92301
G1 X75.154 Y60.79 E12.9267
G1 X76.155 Y60.413 E12.9765
G1 X78.663 Y59.389 E13.10265
G1 X81.094 Y58.315 E13.2264
G1 X83.48 Y57.181 E13.34941
G1 X85.886 Y55.951 E13.47524
G1 X88.2 Y54.685 E13.59806
G1 X90.487 Y53.347 E13.72144
G1 X92.768 Y51.926 E13.84657
G1 X94.971 Y50.464 E13.96969
G1 X97.15 Y48.929 E14.0938
G1 X99.305 Y47.317 E14.21911
G1 X101.366 Y45.684 E14.34155
G1 X103.15 Y44.192 E14.44985
G1 X103.543 Y43.856 E14.47392
G1 X104.088 Y43.444 E14.50574
G1 X104.676 Y43.097 E14.53753
G1 X105.302 Y42.822 E14.56937
G1 X105.722 Y42.684 E14.58995
G1 X106.608 Y42.429 E14.63288
G1 X106.712 Y42.4 E14.63791
G1 X116.462 Y39.788 E15.10792
G1 X116.526 Y39.771 E15.111
G1 X117.226 Y39.592 E15.14465
G1 X117.897 Y39.462 E15.17647
G1 X118.578 Y39.411 E15.20827
G1 X119.261 Y39.44 E15.2401
G1 X119.935 Y39.548 E15.27189
G1 X120.593 Y39.735 E15.30374
G1 X121.224 Y39.996 E15.33554
G1 X121.82 Y40.33 E15.36735
G1 X122.373 Y40.732 E15.39918
G1 X122.875 Y41.195 E15.43098
G1 X123.32 Y41.713 E15.46278
G1 X123.701 Y42.28 E15.49459
G1 X124.014 Y42.888 E15.52643
G1 X124.289 Y43.648 E15.56407
G1 X125.045 Y46.297 E15.69234
G1 X125.813 Y48.695 E15.80959
G1 X125.833 Y48.759 E15.81271
G1 X126.013 Y49.344 E15.84121
G1 X126.175 Y50.007 E15.87299
G1 X126.259 Y50.685 E15.9048
G1 X126.258 Y51.453 E15.94057
G1 X126.208 Y52.196 E15.97524
G1 X126.063 Y54.853 E16.09915
G1 X125.994 Y57.522 E16.22347
G1 X126.001 Y60.2 E16.34817
G1 X126.081 Y62.835 E16.47092
G1 X126.239 Y65.511 E16.59574
G1 X126.471 Y68.17 E16.72003
G1 X126.777 Y70.799 E16.84327
G1 X127.159 Y73.445 E16.96776
G1 X127.617 Y76.078 E17.0922
G1 X128.139 Y78.652 E17.2145
G1 X128.751 Y81.285 E17.34037
G1 X129.42 Y83.831 E17.46295
G1 X130.17 Y86.389 E17.58707
G1 X131.35 Y89.961 E17.76224
G1 X131.738 Y91.065 E17.81673
G1 X131.927 Y91.721 E17.84852
G1 X132.037 Y92.396 E17.88036
G1 X132.067 Y93.161 E17.91601
G1 X132.023 Y94.773 E17.9911
G1 X131.984 Y97.442 E18.11539
G1 X132.021 Y100.081 E18.23829
G1 X132.177 Y103.519 E18.39854
G1 X132.181 Y103.935 E18.41791
G1 X132.089 Y107.517 E18.58476
G1 X132.096 Y110.179 E18.70872
G1 X132.172 Y112.307 E18.80787
G1 X132.174 Y112.36 E18.81034
G1 X132.202 Y113.409 E18.8592
G1 X132.18 Y114.092 E18.89102
G1 X132.015 Y115.039 E18.93578
G1 X131.677 Y116.334 E18.9981
G1 X131.016 Y119.011 E19.1265
G1 X130.446 Y121.625 E19.25108
G1 X129.963 Y124.217 E19.37385
G1 X129.715 Y125.712 E19.44441
G1 X129.564 Y126.378 E19.47621
G1 X129.336 Y127.023 E19.50807
G1 X129.035 Y127.636 E19.53987
G1 X128.508 Y128.412 E19.58355
G1 X128.362 Y128.594 E19.59441
G1 X127.981 Y129.024 E19.62116
G1 X127.8 Y129.209 E19.63321
G1 X127.756 Y129.255 E19.63618
G1 X124.245 Y132.766 E19.86738
G1 X124.189 Y132.821 E19.87104
G1 X123.699 Y133.298 E19.90288
G1 X123.182 Y133.745 E19.9347
G1 X122.617 Y134.128 E19.96649
G1 X122.01 Y134.444 E19.99835
G1 X121.372 Y134.686 E20.03013
G1 X120.504 Y134.886 E20.0716
G1 X119.273 Y135.073 E20.12958
G1 X116.573 Y135.519 E20.25701
G1 X113.963 Y136.024 E20.38079
G1 X111.382 Y136.601 E20.50394
G1 X109.38 Y137.101 E20.60003
G1 X108.15 Y137.422 E20.65922
G1 X107.48 Y137.555 E20.69103
G1 X106.799 Y137.61 E20.72284
G1 X106.116 Y137.584 E20.75467
G1 X105.441 Y137.479 E20.78648
G1 X104.506 Y137.193 E20.832
G1 X104.276 Y137.101 E20.84354
G1 X103.973 Y136.97 E20.85891
G1 X101.921 Y136.011 E20.96438
G1 X99.455 Y134.942 E21.08953
G1 X96.986 Y133.953 E21.21338
G1 X94.511 Y133.043 E21.33617
G1 X91.971 Y132.189 E21.46095
G1 X89.413 Y131.409 E21.58547
G1 X86.864 Y130.71 E21.70855
G1 X84.243 Y130.069 E21.83419
G1 X81.675 Y129.52 E21.95647
G1 X77.977 Y128.856 E22.13142
G1 X77.313 Y128.696 E22.16322
G1 X76.672 Y128.46 E22.19503
G1 X76.062 Y128.15 E22.22689
G1 X75.494 Y127.772 E22.25866
G1 X74.973 Y127.329 E22.2905
G1 X74.508 Y126.829 E22.3223
G1 X74.104 Y126.278 E22.35411
G1 X73.767 Y125.683 E22.38595
G1 X73.503 Y125.053 E22.41776
G1 X73.313 Y124.397 E22.44956
G1 X73.201 Y123.723 E22.48137
G1 X73.17 Y123.228 E22.50447
G1 X73.149 Y122.204 E22.55216
G1 X73.148 Y122.084 E22.55775
G1 X73.148 Y114.907 E22.89194
G1 X73.149 Y114.823 E22.89585
G1 X73.159 Y114.126 E22.92831
G1 X73.204 Y113.482 E22.95837
G1 X73.29 Y112.797 E22.99052
G1 X73.599 Y110.066 E23.1185
G1 X73.824 Y107.42 E23.24215
G1 X73.974 Y104.757 E23.36635
G1 X74.049 Y102.083 E23.49091
G1 X74.049 Y99.442 E23.61388
G1 X73.972 Y96.766 E23.73854
G1 X73.822 Y94.107 E23.86255
G1 X73.593 Y91.43 E23.98766
G1 X73.298 Y88.841 E24.10899
G1 X72.916 Y86.158 E24.23519
G1 X72.47 Y83.559 E24.35798
G1 X71.77 Y80.144 E24.5203
G1 X71.574 Y79.272 E24.56192
G1 X71.509 Y78.939 E24.57771
G1 X71.475 Y78.732 E24.58748
G1 X71.464 Y78.658 E24.59097
G1 X71.111 Y76.322 E24.70097
G1 X70.688 Y74.064 E24.80795
G1 X70.681 Y74.025 E24.80979
G1 X70.449 Y72.738 E24.87068
G1 X70.367 Y72.06 E24.90248
G1 X70.362 Y71.433 E24.93168
G1 X70.376 Y71.129 E24.94585
G1 X70.381 Y71.035 E24.95024
G1 X70.519 Y68.811 E25.05399
G1 X70.55 Y67.772 E25.10239
G1 X70.554 Y67.667 E25.10729
G1 X70.62 Y66.275 E25.17218
G1 X70.692 Y65.596 E25.20397
G1 X70.843 Y64.93 E25.23577
G1 X71.071 Y64.286 E25.26758
G1 X71.372 Y63.672 E25.29942
G1 X71.743 Y63.099 E25.33121
G1 X72.179 Y62.572 E25.36306
M204 S3000
M205 X10 Y10
G0 F3000 X72.291 Y63.303
M204 S1800
M205 X8 Y8
G1 F2400 X72.722 Y62.816 E25.39334
G1 X73.209 Y62.386 E25.42359
G1 X73.745 Y62.019 E25.45384
G1 X74.528 Y61.635 E25.49445
G1 X75.284 Y61.339 E25.53225
G1 X75.351 Y61.314 E25.53558
G1 X76.387 Y60.924 E25.58713
G1 X78.851 Y59.918 E25.71106
G1 X81.354 Y58.812 E25.83848
G1 X83.726 Y57.685 E25.96076
G1 X86.132 Y56.454 E26.08661
G1 X88.474 Y55.173 E26.21091
G1 X90.772 Y53.829 E26.33487
G1 X93.071 Y52.397 E26.46099
G1 X95.309 Y50.912 E26.58605
G1 X97.489 Y49.376 E26.71023
G1 X99.63 Y47.775 E26.83471
G1 X101.738 Y46.104 E26.95997
G1 X103.469 Y44.656 E27.06506
G1 X103.907 Y44.282 E27.09187
G1 X104.426 Y43.891 E27.12213
G1 X104.989 Y43.567 E27.15238
G1 X105.877 Y43.222 E27.19674
G1 X106.763 Y42.967 E27.23967
G1 X106.857 Y42.941 E27.24421
G1 X116.607 Y40.329 E27.71422
G1 X116.665 Y40.314 E27.71701
G1 X117.365 Y40.135 E27.75065
G1 X118.003 Y40.013 E27.7809
G1 X118.651 Y39.97 E27.81114
G1 X119.3 Y40.007 E27.84141
G1 X119.939 Y40.124 E27.87166
G1 X120.559 Y40.318 E27.90191
G1 X121.15 Y40.587 E27.93214
G1 X121.704 Y40.927 E27.96241
G1 X122.212 Y41.331 E27.99263
G1 X122.666 Y41.796 E28.0229
G1 X123.06 Y42.312 E28.05313
G1 X123.388 Y42.873 E28.08339
G1 X123.644 Y43.47 E28.11363
G1 X123.75 Y43.801 E28.12982
G1 X124.509 Y46.462 E28.25867
G1 X125.279 Y48.865 E28.37616
G1 X125.298 Y48.923 E28.37901
G1 X125.478 Y49.508 E28.40751
G1 X125.63 Y50.14 E28.43777
G1 X125.704 Y50.785 E28.468
G1 X125.699 Y51.416 E28.49739
G1 X125.649 Y52.159 E28.53206
G1 X125.503 Y54.843 E28.65723
G1 X125.434 Y57.508 E28.78136
G1 X125.441 Y60.184 E28.90597
G1 X125.523 Y62.884 E29.03175
G1 X125.681 Y65.558 E29.15648
G1 X125.913 Y68.21 E29.28044
G1 X126.222 Y70.874 E29.40532
G1 X126.609 Y73.552 E29.53131
G1 X127.066 Y76.182 E29.65561
G1 X127.587 Y78.747 E29.77749
G1 X128.206 Y81.41 E29.90479
G1 X128.885 Y83.995 E30.02924
G1 X129.633 Y86.545 E30.15299
G1 X130.827 Y90.161 E30.3303
G1 X131.21 Y91.251 E30.3841
G1 X131.387 Y91.875 E30.4143
G1 X131.487 Y92.517 E30.44456
G1 X131.507 Y93.146 E30.47386
G1 X131.463 Y94.758 E30.54895
G1 X131.424 Y97.442 E30.67394
G1 X131.46 Y100.083 E30.79693
G1 X131.618 Y103.545 E30.9583
G1 X131.621 Y103.92 E30.97577
G1 X131.529 Y107.504 E31.14271
G1 X131.536 Y110.17 E31.26685
G1 X131.613 Y112.327 E31.36735
G1 X131.614 Y112.375 E31.36959
G1 X131.642 Y113.424 E31.41845
G1 X131.619 Y114.073 E31.44869
G1 X131.473 Y114.897 E31.48765
G1 X131.133 Y116.2 E31.55036
G1 X130.474 Y118.868 E31.67833
G1 X129.899 Y121.507 E31.80409
G1 X129.403 Y124.163 E31.9299
G1 X129.162 Y125.621 E31.99872
G1 X129.017 Y126.254 E32.02895
G1 X128.795 Y126.864 E32.05918
G1 X128.499 Y127.443 E32.08946
G1 X128.072 Y128.062 E32.12448
G1 X127.926 Y128.244 E32.13534
G1 X127.581 Y128.632 E32.15952
G1 X127.4 Y128.817 E32.17157
G1 X127.36 Y128.859 E32.17427
G1 X123.849 Y132.37 E32.40547
G1 X123.798 Y132.419 E32.40877
G1 X123.308 Y132.896 E32.44061
G1 X122.816 Y133.32 E32.47085
G1 X122.275 Y133.68 E32.50111
G1 X121.694 Y133.971 E32.53137
G1 X121.082 Y134.188 E32.56161
G1 X120.42 Y134.333 E32.59316
G1 X119.177 Y134.522 E32.65171
G1 X116.478 Y134.967 E32.77908
G1 X113.844 Y135.477 E32.90401
G1 X111.241 Y136.06 E33.02822
G1 X109.214 Y136.565 E33.12549
G1 X108.008 Y136.88 E33.18353
G1 X107.371 Y137.005 E33.21376
G1 X106.723 Y137.051 E33.244
G1 X106.074 Y137.017 E33.27427
G1 X105.434 Y136.903 E33.30454
G1 X104.714 Y136.673 E33.33973
G1 X104.484 Y136.581 E33.35127
G1 X104.21 Y136.463 E33.36516
G1 X102.13 Y135.491 E33.47207
G1 X99.678 Y134.428 E33.59651
G1 X97.21 Y133.439 E33.72031
G1 X94.674 Y132.507 E33.84612
G1 X92.125 Y131.65 E33.97134
G1 X89.59 Y130.877 E34.09475
G1 X87.001 Y130.167 E34.21975
G1 X84.357 Y129.52 E34.3465
G1 X81.799 Y128.974 E34.4683
G1 X78.076 Y128.305 E34.64443
G1 X77.445 Y128.151 E34.67468
G1 X76.837 Y127.921 E34.70494
G1 X76.263 Y127.618 E34.73517
G1 X75.73 Y127.246 E34.76543
G1 X75.246 Y126.812 E34.7957
G1 X74.82 Y126.322 E34.82594
G1 X74.457 Y125.783 E34.8562
G1 X74.163 Y125.204 E34.88643
G1 X73.942 Y124.593 E34.91669
G1 X73.798 Y123.96 E34.94692
G1 X73.73 Y123.216 E34.98171
G1 X73.709 Y122.192 E35.0294
G1 X73.708 Y122.084 E35.03443
G1 X73.708 Y114.907 E35.36862
G1 X73.709 Y114.831 E35.37216
G1 X73.719 Y114.134 E35.40462
G1 X73.759 Y113.552 E35.43178
G1 X73.846 Y112.857 E35.46439
G1 X74.159 Y110.093 E35.59392
G1 X74.383 Y107.464 E35.71678
G1 X74.534 Y104.768 E35.84251
G1 X74.609 Y102.099 E35.96684
G1 X74.609 Y99.426 E36.09131
G1 X74.532 Y96.755 E36.21573
G1 X74.38 Y94.06 E36.34142
G1 X74.151 Y91.388 E36.4663
G1 X73.849 Y88.737 E36.59054
G1 X73.472 Y86.088 E36.71513
